X:1
T:Galong waltz
C:Norm Merrigan
M:3/4
L:1/8
K:G
G3Bd2|f4 e2|e3d cB|A6|G3Bd2|f4d2|d3c AF|G6|
G3Bd2|f4e2|e3d cB|A6|G3Bd|f4d2|d3c AF|G6|]
g3f ef|e2 d2 GA|B2d2B2|A6|g3f ef|e2d2 GA|B2d2A2|G6|
g3f ef|e2d2 GA|B2d2B2|A6|g3f ef|e2d2 GA|B2d2A2|G6|]
